icons/outline/border-radius.svg

<!--
tags: [corner, rounded, line]
category: Design
version: "1.3"
unicode: "eb7c"
-->
<svg
  xmlns="http://www.w3.org/2000/svg"
  width="24"
  height="24"
  viewBox="0 0 24 24"
  fill="none"
  stroke="currentColor"
  stroke-width="2"
  stroke-linecap="round"
  stroke-linejoin="round"
>
  <path d="M4 12v-4a4 4 0 0 1 4 -4h4m4 0l0 .01m4 -.01l0 .01m0 3.99l0 .01m0 3.99l0 .01m-16 3.99l0 .01m16 -.01l0 .01m-16 3.99l0 .01m4 -.01l0 .01m4 -.01l0 .01m4 -.01l0 .01m4 -.01l0 .01" />
</svg>

<!--
tags: [corner, rounded, line]
category: Design
version: "1.3"
unicode: "eb7c"
-->
<svg
  xmlns="http://www.w3.org/2000/svg"
  width="24"
  height="24"
  viewBox="0 0 24 24"
  fill="none"
  stroke="currentColor"
  stroke-width="2"
  stroke-linecap="round"
  stroke-linejoin="round"
>
    <path d="M4 12v-4a4 4 0 0 1 4 -4h4M16 4l0 .01M20 4l0 .01M20 8l0 .01M20 12l0 .01M4 16l0 .01M20 16l0 .01M4 20l0 .01M8 20l0 .01M12 20l0 .01M16 20l0 .01M20 20l0 .01" />
</svg>
